brandFactory_export/2.Regular/Me gusta_2Regular.svg

<?xml version="1.0" encoding="UTF-8"?>
<svg width="24px" height="24px" viewBox="0 0 24 24" version="1.1" xmlns="http://www.w3.org/2000/svg" xmlns:xlink="http://www.w3.org/1999/xlink">
    <title>2.Regular/Me gusta_2Regular</title>
    <g id="Symbols" stroke="none" stroke-width="1" fill="none" fill-rule="evenodd">
        <g id="2.Regular/Me-gusta_2Regular" fill="#5CB615" fill-rule="nonzero">
            <path d="M11.8521008,23.5428571 L11.8319328,23.5428571 C11.7714286,23.5428571 11.7176471,23.5428571 11.6672269,23.5394958 L11.6470588,23.5394958 C11.4857143,23.5294118 11.3243697,23.5092437 11.1663866,23.4722689 C10.6151261,23.3478992 10.0907563,23.1159664 9.63361345,22.7831933 C9.08571429,22.3865546 8.44033613,21.7344538 8.25546218,21.5462185 C6.34957983,19.5798319 5.23697479,18.1848739 3.84201681,16.0201681 C2.09747899,13.3109244 0.897478992,10.6184874 0.278991597,8.02016807 C-0.393277311,5.19663866 0.161344538,2.85378151 1.83529412,1.41512605 C2.80672269,0.58487395 4.13445378,0.0840336134 5.56638655,0.0100840336 C7.07563025,-0.0672268908 8.64201681,0.315966387 10.0941176,1.12268908 C10.5882353,1.39495798 11.0957983,1.6907563 11.6504202,2.01680672 C11.7613445,2.07731092 11.8957983,2.07731092 12.010084,2.01680672 C12.5613445,1.68739496 13.0722689,1.39495798 13.5697479,1.11932773 C15.0184874,0.315966387 16.5848739,-0.0672268908 18.0941176,0.0100840336 C19.5294118,0.0840336134 20.8537815,0.58487395 21.8252101,1.41848739 C23.4991597,2.85378151 24.0537815,5.2 23.3815126,8.02352941 C22.7630252,10.6184874 21.5663866,13.307563 19.8184874,16.0201681 C18.4369748,18.1680672 17.3310924,19.5563025 15.4521008,21.4957983 C15.4386555,21.512605 15.4252101,21.5294118 15.4084034,21.5462185 C15.2235294,21.7378151 14.5815126,22.3865546 14.0336134,22.7798319 C13.5764706,23.112605 13.0521008,23.3478992 12.5008403,23.4689076 C12.3428571,23.5058824 12.1815126,23.5294118 12.0201681,23.5361345 L12,23.5361345 C11.9495798,23.5428571 11.902521,23.5428571 11.8521008,23.5428571 Z M11.8319328,22.1983193 L11.9361345,22.1983193 C12.0235294,22.194958 12.107563,22.1815126 12.1915966,22.1613445 L12.2117647,22.1579832 C12.5848739,22.0739496 12.9378151,21.9159664 13.2470588,21.687395 C13.5932773,21.4386555 14.0705882,20.9882353 14.3966387,20.6554622 C14.410084,20.6386555 14.4235294,20.6218487 14.4369748,20.6084034 C16.2957983,18.692437 17.3277311,17.3983193 18.6857143,15.2907563 C20.3495798,12.702521 21.4890756,10.1512605 22.0739496,7.70756303 C22.3495798,6.5512605 22.3932773,5.50588235 22.2016807,4.60504202 C22.010084,3.71092437 21.589916,2.98151261 20.9546218,2.43361345 C20.205042,1.79159664 19.1663866,1.40840336 18.0302521,1.34789916 C16.7663866,1.28739496 15.4487395,1.61344538 14.2184874,2.29915966 C13.7310924,2.56806723 13.2302521,2.85714286 12.6857143,3.17983193 L12.6722689,3.18655462 C12.1445378,3.48235294 11.4991597,3.48235294 10.9714286,3.17983193 L10.9647059,3.17647059 C10.4201681,2.85378151 9.92268908,2.56470588 9.43865546,2.29915966 C8.21176471,1.61344538 6.89411765,1.28739496 5.63697479,1.3512605 C4.49747899,1.40840336 3.45882353,1.79495798 2.71260504,2.43697479 C2.07394958,2.98487395 1.65378151,3.71428571 1.46218487,4.60840336 C1.27058824,5.5092437 1.31092437,6.55462185 1.58655462,7.71092437 C2.17142857,10.1579832 3.30756303,12.7092437 4.97142857,15.2941176 C6.32941176,17.4016807 7.36134454,18.692437 9.22016807,20.6117647 C9.54285714,20.9478992 10.0537815,21.4285714 10.4168067,21.6907563 C10.7260504,21.9159664 11.0789916,22.0773109 11.4521008,22.1613445 L11.4722689,22.1647059 C11.5563025,22.1848739 11.6436975,22.194958 11.7277311,22.2016807 L11.8319328,22.2016807 L11.8319328,22.1983193 Z" id="Me-gusta_2Regular"></path>
        </g>
    </g>
</svg>

<svg width="24" height="24" viewBox="0 0 24 24" xmlns="http://www.w3.org/2000/svg"><path d="M11.852 23.543h-.02c-.06 0-.114 0-.165-.004h-.02a2.903 2.903 0 01-.48-.067 4.16 4.16 0 01-1.533-.689c-.548-.396-1.194-1.049-1.379-1.237-1.905-1.966-3.018-3.361-4.413-5.526-1.745-2.71-2.945-5.402-3.563-8-.672-2.823-.118-5.166 1.556-6.605C2.807.585 4.135.084 5.566.01c1.51-.077 3.076.306 4.528 1.113.494.272 1.002.568 1.556.894.111.06.246.06.36 0 .551-.33 1.062-.622 1.56-.898C15.018.316 16.585-.067 18.094.01c1.435.074 2.76.575 3.731 1.408C23.5 2.854 24.054 5.2 23.382 8.024c-.619 2.594-1.816 5.284-3.564 7.996-1.381 2.148-2.487 3.536-4.366 5.476a.584.584 0 01-.044.05c-.184.192-.826.84-1.374 1.234a4.106 4.106 0 01-1.533.689c-.158.037-.32.06-.48.067H12c-.05.007-.097.007-.148.007zm-.02-1.345h.104a1.3 1.3 0 00.256-.037l.02-.003a2.758 2.758 0 001.035-.47c.346-.25.824-.7 1.15-1.033a.585.585 0 01.04-.047c1.859-1.916 2.89-3.21 4.249-5.317 1.664-2.588 2.803-5.14 3.388-7.583.276-1.157.32-2.202.128-3.103-.192-.894-.612-1.623-1.247-2.171-.75-.642-1.789-1.026-2.925-1.086-1.264-.06-2.581.265-3.812.951-.487.27-.988.558-1.532.88l-.014.008a1.724 1.724 0 01-1.7-.007l-.007-.004A53.221 53.221 0 009.439 2.3c-1.227-.686-2.545-1.012-3.802-.948-1.14.057-2.178.444-2.924 1.086-.64.548-1.06 1.277-1.25 2.171-.192.901-.152 1.947.124 3.103.584 2.447 1.72 4.998 3.384 7.583 1.358 2.108 2.39 3.398 4.25 5.318.322.336.833.817 1.196 1.079.31.225.662.386 1.035.47l.02.004c.084.02.172.03.256.037h.104v-.004z" fill="#5CB615" fill-rule="nonzero"/></svg>
